packages/admin/admin-icons/icons/rte-italic.svg

<svg width="16" height="16" viewBox="0 0 16 16" fill="none" xmlns="http://www.w3.org/2000/svg">
<path fill-rule="evenodd" clip-rule="evenodd" d="M5.94065 1V3.99997H8.21821L4.69349 12H1.81836V15H10.0627V12H7.78515L11.3096 3.99997H14.185V1H5.94065Z" fill="#242424"/>
</svg>

<svg width="16" height="16" fill="none" viewBox="0 0 16 16">
  <path fill="#242424" fill-rule="evenodd" d="M5.939 1.001v3h2.278l-3.525 8H1.817v3h8.244v-3H7.783l3.525-8h2.875V1H5.94Z" clip-rule="evenodd"/>
</svg>
